X:
T:Le petit soulier rouge
C:Laurence Beaudry
N:©Laurence Beaudry
M:6/8
L:1/8
K:G
EFE G2B | AFD A,DF | GBd e2c | gfe d3 |
ece fdf | baf g3 | ecB A2G | F6 |
EGF EGB | AFD A,DF | GBd e2g | fga d3 |
 ece baf | dBd gfd | cdc BAF | G6 |:
B,EG FEF | CEG FEF | A,DF AFd | cBA B2G | EGB e2c | 
AcB cBA |1 DFA dcB | AGF B2G :|2 DFA dcB | AGF E3 |]

